icons/server.svg

<svg width="24" height="24" viewBox="0 0 24 24" fill="none" xmlns="http://www.w3.org/2000/svg">
<path fill-rule="evenodd" clip-rule="evenodd" d="M9 3.75C6.11421 3.75 3.75 6.11421 3.75 9V15C3.75 17.8858 6.11421 20.25 9 20.25H15C17.8858 20.25 20.25 17.8858 20.25 15V9C20.25 6.11421 17.8858 3.75 15 3.75H9ZM2.25 9C2.25 5.28579 5.28579 2.25 9 2.25H15C18.7142 2.25 21.75 5.28579 21.75 9V15C21.75 18.7142 18.7142 21.75 15 21.75H9C5.28579 21.75 2.25 18.7142 2.25 15V9Z" fill="black"/>
<path d="M6.5 10.1C6.2 10.1 6 10 5.8 9.8C5.7 9.7 5.7 9.6 5.6 9.4C5.6 9.3 5.5 9.1 5.5 9C5.5 8.9 5.5 8.7 5.6 8.6C5.7 8.5 5.7 8.4 5.8 8.3C6.2 7.9 6.8 7.9 7.2 8.3C7.3 8.4 7.4 8.5 7.4 8.6C7.5 8.7 7.5 8.9 7.5 9C7.5 9.3 7.4 9.5 7.2 9.7C7.1 10 6.8 10.1 6.5 10.1Z" fill="black"/>
<path d="M10.3 10.1C10 10.1 9.80005 9.99998 9.60005 9.79998C9.40005 9.59998 9.30005 9.29998 9.30005 9.09998C9.30005 8.79998 9.40005 8.59998 9.60005 8.39998C10 7.99998 10.6 7.99998 11 8.39998C11.2 8.49998 11.3 8.79998 11.3 9.09998C11.3 9.39998 11.2 9.59998 11 9.79998C10.8 9.99998 10.5 10.1 10.3 10.1Z" fill="black"/>
<path fill-rule="evenodd" clip-rule="evenodd" d="M12.95 9.09998C12.95 8.68576 13.2857 8.34998 13.7 8.34998H18.4C18.8142 8.34998 19.15 8.68576 19.15 9.09998C19.15 9.51419 18.8142 9.84998 18.4 9.84998H13.7C13.2857 9.84998 12.95 9.51419 12.95 9.09998Z" fill="black"/>
<path d="M6.5 16.3C6.2 16.3 6 16.2 5.8 16C5.7 15.9 5.6 15.8 5.6 15.7C5.6 15.6 5.5 15.4 5.5 15.3C5.5 15.2 5.5 15 5.6 14.9C5.7 14.8 5.7 14.7 5.8 14.6C6.2 14.2 6.9 14.2 7.2 14.6C7.3 14.7 7.4 14.8 7.4 14.9C7.5 15 7.5 15.2 7.5 15.3C7.5 15.6 7.4 15.8 7.2 16C7.1 16.2 6.8 16.3 6.5 16.3Z" fill="black"/>
<path d="M10.3 16.3C10 16.3 9.80005 16.2 9.60005 16C9.40005 15.8 9.30005 15.6 9.30005 15.3C9.30005 15 9.40005 14.8 9.60005 14.6C10 14.2 10.6 14.2 11 14.6C11.2 14.8 11.3 15 11.3 15.3C11.3 15.6 11.2 15.8 11 16C10.8 16.2 10.5 16.3 10.3 16.3Z" fill="black"/>
<path fill-rule="evenodd" clip-rule="evenodd" d="M12.95 15.3C12.95 14.8858 13.2857 14.55 13.7 14.55H18.4C18.8142 14.55 19.15 14.8858 19.15 15.3C19.15 15.7143 18.8142 16.05 18.4 16.05H13.7C13.2857 16.05 12.95 15.7143 12.95 15.3Z" fill="black"/>
</svg>

<svg xmlns="http://www.w3.org/2000/svg" fill="none" viewBox="0 0 24 24">
  <path fill="#000" fill-rule="evenodd" d="M9 3.75C6.114 3.75 3.75 6.114 3.75 9v6c0 2.886 2.364 5.25 5.25 5.25h6c2.886 0 5.25-2.364 5.25-5.25V9c0-2.886-2.364-5.25-5.25-5.25H9ZM2.25 9c0-3.714 3.036-6.75 6.75-6.75h6c3.714 0 6.75 3.036 6.75 6.75v6c0 3.714-3.036 6.75-6.75 6.75H9c-3.714 0-6.75-3.036-6.75-6.75V9Z" clip-rule="evenodd"/>
  <path fill="#000" d="M6.5 10.1c-.3 0-.5-.1-.7-.3-.1-.1-.1-.2-.2-.4 0-.1-.1-.3-.1-.4 0-.1 0-.3.1-.4.1-.1.1-.2.2-.3.4-.4 1-.4 1.4 0 .1.1.2.2.2.3.1.1.1.3.1.4 0 .3-.1.5-.3.7-.1.3-.4.4-.7.4Zm3.8 0c-.3 0-.5-.1-.7-.3-.2-.2-.3-.5-.3-.7 0-.3.1-.5.3-.7.4-.4 1-.4 1.4 0 .2.1.3.4.3.7 0 .3-.1.5-.3.7-.2.2-.5.3-.7.3Z"/>
  <path fill="#000" fill-rule="evenodd" d="M12.95 9.1a.75.75 0 0 1 .75-.75h4.7a.75.75 0 0 1 0 1.5h-4.7a.75.75 0 0 1-.75-.75Z" clip-rule="evenodd"/>
  <path fill="#000" d="M6.5 16.3c-.3 0-.5-.1-.7-.3-.1-.1-.2-.2-.2-.3 0-.1-.1-.3-.1-.4 0-.1 0-.3.1-.4.1-.1.1-.2.2-.3.4-.4 1.1-.4 1.4 0 .1.1.2.2.2.3.1.1.1.3.1.4 0 .3-.1.5-.3.7-.1.2-.4.3-.7.3Zm3.8 0c-.3 0-.5-.1-.7-.3-.2-.2-.3-.4-.3-.7 0-.3.1-.5.3-.7.4-.4 1-.4 1.4 0 .2.2.3.4.3.7 0 .3-.1.5-.3.7-.2.2-.5.3-.7.3Z"/>
  <path fill="#000" fill-rule="evenodd" d="M12.95 15.3a.75.75 0 0 1 .75-.75h4.7a.75.75 0 0 1 0 1.5h-4.7a.75.75 0 0 1-.75-.75Z" clip-rule="evenodd"/>
</svg>
